X: 139
T:La Sauteuse
M:6/8
L:1/8
Q:140
O:FRANCE
K:G
d2c|B3ABc|B2Gd2c|
B3ABc|B3G2A|B2BB2B|
d2Bd2B|G2FG2B|
A3A2B|ddd ded|
B2Bd2c|B3AGA|G2 z||
W:
W: From "Falaleiro" http://home.t-online.de/home/pheld/homepage.htm
